src/images/new-request-load.svg

<?xml version="1.0" encoding="UTF-8"?>
<svg width="96px" height="92px" viewBox="0 0 96 92" version="1.1" xmlns="http://www.w3.org/2000/svg" xmlns:xlink="http://www.w3.org/1999/xlink">
    <!-- Generator: Sketch 55.2 (78181) - https://sketchapp.com -->
    <title>internet (1)</title>
    <desc>Created with Sketch.</desc>
    <defs>
        <linearGradient x1="0%" y1="32.5689919%" x2="99.3929476%" y2="32.5689919%" id="linearGradient-1">
            <stop stop-color="#5269FF" offset="0%"></stop>
            <stop stop-color="#4890FF" offset="100%"></stop>
        </linearGradient>
        <linearGradient x1="3.23793274%" y1="6.83281172%" x2="97.452088%" y2="95.1710668%" id="linearGradient-2">
            <stop stop-color="#FFA05B" offset="0%"></stop>
            <stop stop-color="#FFE068" offset="100%"></stop>
        </linearGradient>
        <circle id="path-3" cx="16.3038095" cy="16.3038095" r="16.3038095"></circle>
        <filter x="-27.6%" y="-18.4%" width="155.2%" height="155.2%" filterUnits="objectBoundingBox" id="filter-4">
            <feOffset dx="0" dy="3" in="SourceAlpha" result="shadowOffsetOuter1"></feOffset>
            <feGaussianBlur stdDeviation="2.5" in="shadowOffsetOuter1" result="shadowBlurOuter1"></feGaussianBlur>
            <feColorMatrix values="0 0 0 0 0   0 0 0 0 0   0 0 0 0 0  0 0 0 0.1 0" type="matrix" in="shadowBlurOuter1"></feColorMatrix>
        </filter>
    </defs>
    <g id="on-demand" stroke="none" stroke-width="1" fill="none" fill-rule="evenodd">
        <g id="query-web-request-2" transform="translate(-674.000000, -298.000000)">
            <g id="Group-23" transform="translate(400.000000, 164.000000)">
                <g id="internet-(1)" transform="translate(274.000000, 134.000000)">
                    <circle id="Oval" fill="url(#linearGradient-1)" cx="41" cy="41" r="41"></circle>
                    <path d="M82,41 C82,32.7738945 79.5777969,25.1139414 75.407168,18.6942383 C75.407168,18.6942383 73.0682461,22.1110117 73.5077148,24.3072344 C73.9468633,26.5037773 76.5274609,26.6714609 76.2624023,28.2826328 C75.9973437,29.8938047 74.0937266,27.821543 71.7504805,32.0676055 C69.4073945,36.3139883 70.579418,42.1728242 73.9468633,42.611332 C77.3144687,43.0495195 82,41 82,41 Z" id="Path" fill="#FFFFFF" fill-rule="nonzero"></path>
                    <path d="M51.7673047,1.42859375 C56.5394805,2.7239375 60.9657187,4.85978125 64.8772148,7.66683984 C64.8772148,7.66683984 60.1231367,6.88271484 58.3221797,8.49292578 C56.5213828,10.1036172 53.8949805,13.911332 51.7671445,8.49292578 C49.6396289,3.07483984 51.7673047,1.42859375 51.7673047,1.42859375 Z" id="Path" fill="#EAEEFF" fill-rule="nonzero"></path>
                    <path d="M10.1729648,13.968668 C17.6871758,5.40591406 28.7120117,0 41,0 C41,0 38.2184062,1.68420313 43.4897891,4.53946875 C48.761332,7.39505469 46.3450547,8.71266016 45.2468633,9.59127734 C44.148832,10.4698945 42.2440937,7.83420313 41,6.07728906 C39.7557461,4.31989453 34.4124531,1.61133203 30.3121328,3.07596094 C26.2119727,4.54058984 22.6984648,5.62244531 23.2836758,6.98505469 C23.8687266,8.34734375 30.8973437,5.71261328 33.5330352,5.85835547 C36.1687266,6.00441797 35.2901094,7.61478906 32.8012812,9.51856641 C30.3121328,11.4223438 30.0187266,13.7649492 32.6545781,15.2290977 C35.2901094,16.6938867 38.5108516,16.8404297 39.2438867,15.9619727 C39.9764414,15.0833555 37.9259609,9.37266406 42.9047383,11.8616523 C47.8835156,14.3506406 51.9836758,15.8160703 47.8835156,19.4762813 C43.7831953,23.1361719 39.0978242,27.2376133 38.9511211,29.5795781 C38.804418,31.9218633 40.4159102,33.8269219 39.537293,33.9726641 C38.6586758,34.1184063 37.8522891,33.0211758 37.266918,32.2152695 C36.6818672,31.4098438 33.9723437,31.1173984 32.6545781,31.629418 C31.3366523,32.1414375 28.8470234,34.1184063 30.2384609,36.0221836 C31.6300586,37.9262813 33.5320742,37.046543 35.4361719,37.9253203 C37.3399492,38.8039375 39.1152812,42.1478398 38.7507656,42.9036172 C38.38625,43.6590742 36.7633867,42.7024609 35.4361719,40.1218633 C34.1086367,37.5409453 31.6188477,39.2432461 29.8670586,38.8039375 C28.1151094,38.3647891 26.7971836,38.0720234 25.0399492,34.9968633 C23.2827148,31.9220234 19.6447656,31.0615039 18.1581953,29.286332 C13.8998008,24.2013711 14.204418,20.3542578 13.3259609,18.5971836 C12.4473437,16.8396289 10.1729648,13.968668 10.1729648,13.968668 Z" id="Path" fill="#FFFFFF" fill-rule="nonzero"></path>
                    <path d="M44.953457,41.5858516 C44.953457,41.5858516 49.3463828,42.0243594 51.5427656,43.928457 C53.7391484,45.8322344 54.0325547,46.5647891 57.4001602,47.2967031 C60.7677656,48.0282969 62.2323945,49.9314336 60.0358516,53.5926055 C57.8394687,57.2532969 53.8852109,63.1106914 51.9820742,64.8679258 C50.0790977,66.6253203 47.7360117,68.0894687 46.8573945,71.0179258 C45.9789375,73.9460625 45.6855312,75.7021758 47.5893086,76.8745195 C47.5893086,76.8745195 46.5649492,79.3641484 44.2218633,76.1426055 C41.8786172,72.9207422 43.7823945,69.1141484 44.2218633,66.9176055 C44.6610117,64.7213828 45.8322344,58.1327148 45.1001602,56.5212227 C44.3685664,54.9102109 41,53.8848906 40.1213828,50.5176055 C39.2427656,47.1501602 40.7804258,40.5968867 44.953457,41.5858516 Z" id="Path" fill="#FFFFFF" fill-rule="nonzero"></path>
                    <path d="M12.0085156,12.0089961 C28.0201367,-4.00294531 53.9793828,-4.002625 69.9911641,12.0089961 C86.0029453,28.0202969 86.0029453,53.9798633 69.9913242,69.9914844 C69.9913242,69.9914844 88.5931523,45.3930859 62.2568984,19.056832 C35.9204844,-7.27958203 12.0085156,12.0089961 12.0085156,12.0089961 Z" id="Path" fill="#8D94BF" fill-rule="nonzero" opacity="0.192471168"></path>
                    <g id="Group-36" transform="translate(58.000000, 51.000000)">
                        <g id="Group-Copy" transform="translate(0.129524, 0.129524)">
                            <g id="Oval">
                                <use fill="black" fill-opacity="1" filter="url(#filter-4)" xlink:href="#path-3"></use>
                                <use fill="url(#linearGradient-2)" fill-rule="evenodd" xlink:href="#path-3"></use>
                            </g>
                        </g>
                    </g>
                    <g id="wifi-(1)" transform="translate(63.000000, 59.000000)" fill="#FFFFFF" fill-rule="nonzero">
                        <path d="M23.832,5.32229268 C20.6714182,2.142 16.4618182,0.390731707 11.9799273,0.390731707 C7.49803636,0.390731707 3.28887273,2.14156098 0.127854545,5.32229268 C-0.0427636364,5.49395122 -0.0427636364,5.77141463 0.127854545,5.94307317 C0.298472727,6.11473171 0.574254545,6.11473171 0.744872727,5.94307317 C3.74094545,2.92829268 7.73105455,1.26834146 11.9799273,1.26834146 C16.2288,1.26834146 20.2189091,2.92829268 23.2149818,5.94263415 C23.3000727,6.0282439 23.4117818,6.07126829 23.5234909,6.07126829 C23.6352,6.07126829 23.7469091,6.0282439 23.832,5.94263415 C24.0026182,5.77141463 24.0026182,5.4935122 23.832,5.32229268 Z" id="Path"></path>
                        <path d="M2.6928,7.90243902 C2.52218182,8.07409756 2.52218182,8.35156098 2.6928,8.52321951 C2.77789091,8.60882927 2.8896,8.65185366 3.00130909,8.65185366 C3.11301818,8.65185366 3.22472727,8.60882927 3.30981818,8.52321951 C8.09018182,3.71326829 15.8688,3.71326829 20.6496,8.52321951 C20.8202182,8.69487805 21.096,8.69487805 21.2666182,8.52321951 C21.4372364,8.35156098 21.4372364,8.07409756 21.2666182,7.90243902 C16.1463273,2.75092683 7.81396364,2.75004878 2.6928,7.90243902 Z" id="Path"></path>
                        <path d="M11.9799273,7.68643902 C9.43810909,7.68643902 7.0512,8.67995122 5.25818182,10.4834634 C5.08756364,10.655122 5.08756364,10.9325854 5.25818182,11.1042439 C5.4288,11.2759024 5.70458182,11.2759024 5.8752,11.1042439 C7.50327273,9.46668293 9.67112727,8.5644878 11.9799273,8.5644878 C14.2887273,8.5644878 16.4565818,9.46668293 18.0846545,11.1042439 C18.1697455,11.1898537 18.2814545,11.232878 18.3931636,11.232878 C18.5048727,11.232878 18.6165818,11.1898537 18.7016727,11.1042439 C18.8722909,10.9325854 18.8722909,10.655122 18.7016727,10.4834634 C16.9090909,8.67995122 14.5217455,7.68643902 11.9799273,7.68643902 Z" id="Path"></path>
                        <path d="M11.9799273,11.8167805 C10.4037818,11.8167805 9.12130909,13.1070732 9.12130909,14.6932683 C9.12130909,16.2794634 10.4037818,17.5697561 11.9799273,17.5697561 C13.5565091,17.5697561 14.8389818,16.2794634 14.8389818,14.6932683 C14.8389818,13.1070732 13.5565091,11.8167805 11.9799273,11.8167805 Z" id="Path"></path>
                    </g>
                </g>
            </g>
        </g>
    </g>
</svg>

<svg xmlns="http://www.w3.org/2000/svg" xmlns:xlink="http://www.w3.org/1999/xlink" width="96" height="92" viewBox="0 0 96 92">
    <defs>
        <linearGradient id="a" x1="0%" x2="99.393%" y1="32.569%" y2="32.569%">
            <stop offset="0%" stop-color="#5269FF"/>
            <stop offset="100%" stop-color="#4890FF"/>
        </linearGradient>
        <linearGradient id="d" x1="3.238%" x2="97.452%" y1="6.833%" y2="95.171%">
            <stop offset="0%" stop-color="#FFA05B"/>
            <stop offset="100%" stop-color="#FFE068"/>
        </linearGradient>
        <circle id="c" cx="16.304" cy="16.304" r="16.304"/>
        <filter id="b" width="155.2%" height="155.2%" x="-27.6%" y="-18.4%" filterUnits="objectBoundingBox">
            <feOffset dy="3" in="SourceAlpha" result="shadowOffsetOuter1"/>
            <feGaussianBlur in="shadowOffsetOuter1" result="shadowBlurOuter1" stdDeviation="2.5"/>
            <feColorMatrix in="shadowBlurOuter1" values="0 0 0 0 0 0 0 0 0 0 0 0 0 0 0 0 0 0 0.1 0"/>
        </filter>
    </defs>
    <g fill="none" fill-rule="evenodd">
        <circle cx="41" cy="41" r="41" fill="url(#a)"/>
        <path fill="#FFF" fill-rule="nonzero" d="M82 41a40.806 40.806 0 0 0-6.593-22.306s-2.339 3.417-1.9 5.613c.44 2.197 3.02 2.364 2.755 3.976-.265 1.61-2.168-.461-4.512 3.785-2.343 4.246-1.17 10.105 2.197 10.543C77.314 43.05 82 41 82 41z"/>
        <path fill="#EAEEFF" fill-rule="nonzero" d="M51.767 1.429a40.823 40.823 0 0 1 13.11 6.238s-4.754-.784-6.555.826c-1.8 1.61-4.427 5.418-6.555 0-2.127-5.418 0-7.064 0-7.064z"/>
        <path fill="#FFF" fill-rule="nonzero" d="M10.173 13.969C17.687 5.406 28.712 0 41 0c0 0-2.782 1.684 2.49 4.54 5.271 2.855 2.855 4.173 1.757 5.051-1.098.879-3.003-1.757-4.247-3.514-1.244-1.757-6.588-4.466-10.688-3.001-4.1 1.465-7.614 2.546-7.028 3.91.585 1.361 7.613-1.273 10.249-1.128 2.636.146 1.757 1.757-.732 3.66-2.489 1.904-2.782 4.247-.146 5.711 2.635 1.465 5.856 1.611 6.589.733.732-.879-1.318-6.59 3.66-4.1 4.98 2.489 9.08 3.954 4.98 7.614-4.1 3.66-8.786 7.762-8.933 10.104-.147 2.342 1.465 4.247.586 4.393-.878.145-1.685-.952-2.27-1.758-.585-.805-3.295-1.098-4.612-.586-1.318.512-3.808 2.49-2.417 4.393 1.392 1.904 3.294 1.025 5.198 1.903 1.904.879 3.68 4.223 3.315 4.979-.365.755-1.988-.202-3.315-2.782-1.327-2.581-3.817-.879-5.569-1.318-1.752-.44-3.07-.732-4.827-3.807-1.757-3.075-5.395-3.935-6.882-5.71-4.258-5.086-3.954-8.933-4.832-10.69-.879-1.757-3.153-4.628-3.153-4.628zM44.953 41.586s4.393.438 6.59 2.342c2.196 1.904 2.49 2.637 5.857 3.369 3.368.731 4.832 2.634 2.636 6.296-2.197 3.66-6.15 9.518-8.054 11.275-1.903 1.757-4.246 3.221-5.125 6.15-.878 2.928-1.171 4.684.732 5.857 0 0-1.024 2.49-3.367-.732-2.343-3.222-.44-7.029 0-9.225.439-2.197 1.61-8.785.878-10.397-.731-1.61-4.1-2.636-4.979-6.003-.878-3.368.66-9.921 4.832-8.932z"/>
        <path fill="#8D94BF" fill-rule="nonzero" d="M12.009 12.009c16.011-16.012 41.97-16.012 57.982 0 16.012 16.011 16.012 41.97 0 57.982 0 0 18.602-24.598-7.734-50.934C35.92-7.28 12.009 12.009 12.009 12.009z" opacity=".192"/>
        <g transform="translate(58.13 51.13)">
            <use fill="#000" filter="url(#b)" xlink:href="#c"/>
            <use fill="url(#d)" xlink:href="#c"/>
        </g>
    </g>
</svg>
